X: 38
M:4/4
L:1/8
K:G
"Moderato"DE/2F/2|G>AGF E2 D2|dd g/2f/2e/2d/2 B2 c/2B/2A/2G/2|
e>def g2 ga/2b/2|agfe d2 B2|ed e/2g/2f/2a/2 ggab|
agf>e e4|edef gg g/2f/2e/2d/2|Bg B/2g/2B/2g/2 A2 B/2A/2G/2F/2|

